images/logo.svg

<svg width="45" height="60" viewBox="0 0 45 60" fill="none" xmlns="http://www.w3.org/2000/svg">
<path d="M41.7857 0H3.21429C1.43759 0 0 1.67719 0 3.75V52.5C0 56.6419 2.87839 60 6.42857 60H41.7857C43.5624 60 45 58.3228 45 56.25V3.75C45 1.67719 43.5624 0 41.7857 0ZM38.5714 52.5H9.64286C7.86616 52.5 6.42857 50.8228 6.42857 48.75C6.42857 46.6772 7.86616 45 9.64286 45H38.5714V52.5ZM38.5714 37.5H6.42857V7.5H38.5714V37.5Z" fill="#394240"/>
<path d="M38.5714 52.5H9.64287C7.86618 52.5 6.42859 50.8228 6.42859 48.75C6.42859 46.6772 7.86618 45 9.64287 45H38.5714V52.5Z" fill="#F9EBB2"/>
<path d="M38.5714 7.5H6.42859V37.5H38.5714V7.5Z" fill="#45AAB8"/>
<path d="M28.1579 15.4275H17.6316C17.3524 15.4275 17.0847 15.5528 16.8873 15.7759C16.6899 15.9991 16.579 16.3017 16.579 16.6172V28.5141C16.579 28.8296 16.6899 29.1322 16.8873 29.3554C17.0847 29.5785 17.3524 29.7038 17.6316 29.7038H28.1579C28.4371 29.7038 28.7048 29.5785 28.9023 29.3554C29.0997 29.1322 29.2106 28.8296 29.2106 28.5141V16.6172C29.2106 16.3017 29.0997 15.9991 28.9023 15.7759C28.7048 15.5528 28.4371 15.4275 28.1579 15.4275ZM25 24.945H20.7895V20.1863H25V24.945Z" fill="#2CA9BC"/>
<path d="M22.8948 15.4275V11.8584M27.1053 15.4275V13.0481M18.6842 15.4275V13.0481M29.2106 22.5656H32.3685M29.2106 27.3244H31.3158M29.2106 17.8069H31.3158M22.8948 29.7038V33.2729M18.6842 29.7038V32.0832M27.1053 29.7038V32.0832M16.579 22.5656H13.4211M16.579 17.8069H14.4737M16.579 27.3244H14.4737M29.2106 28.5141V16.6172C29.2106 16.3016 29.0997 15.999 28.9022 15.7759C28.7048 15.5528 28.4371 15.4275 28.1579 15.4275H17.6316C17.3524 15.4275 17.0847 15.5528 16.8873 15.7759C16.6899 15.999 16.579 16.3016 16.579 16.6172V28.5141C16.579 28.8296 16.6899 29.1322 16.8873 29.3553C17.0847 29.5785 17.3524 29.7038 17.6316 29.7038H28.1579C28.4371 29.7038 28.7048 29.5785 28.9022 29.3553C29.0997 29.1322 29.2106 28.8296 29.2106 28.5141ZM25 20.1862H20.7895V24.945H25V20.1862Z" stroke="black" stroke-width="2" stroke-linecap="round" stroke-linejoin="round"/>
</svg>

<svg width="45" height="60" fill="none" xmlns="http://www.w3.org/2000/svg"><path d="M41.786 0H3.214C1.438 0 0 1.677 0 3.75V52.5C0 56.642 2.878 60 6.429 60h35.357C43.562 60 45 58.323 45 56.25V3.75C45 1.677 43.562 0 41.786 0ZM38.57 52.5H9.643c-1.777 0-3.214-1.677-3.214-3.75S7.866 45 9.643 45H38.57v7.5Zm0-15H6.43v-30H38.57v30Z" fill="#394240"/><path d="M38.571 52.5H9.643c-1.777 0-3.214-1.677-3.214-3.75S7.866 45 9.643 45H38.57v7.5Z" fill="#F9EBB2"/><path d="M38.571 7.5H6.43v30H38.57v-30Z" fill="#45AAB8"/><path d="M28.158 15.428H17.632a.995.995 0 0 0-.745.348 1.273 1.273 0 0 0-.308.841v11.897c0 .316.11.618.308.841a.995.995 0 0 0 .745.349h10.526c.28 0 .547-.126.744-.349.198-.223.309-.525.309-.84V16.616c0-.315-.111-.618-.309-.841a.995.995 0 0 0-.744-.348ZM25 24.944h-4.21v-4.759H25v4.759Z" fill="#2CA9BC"/><path d="M22.895 15.428v-3.57m4.21 3.57v-2.38m-8.42 2.38v-2.38m10.526 9.518h3.157m-3.157 4.758h2.105m-2.105-9.517h2.105m-8.421 11.897v3.569m-4.21-3.57v2.38m8.42-2.38v2.38M16.58 22.566h-3.158m3.158-4.76h-2.105m2.105 9.518h-2.105m14.737 1.19V16.617c0-.315-.111-.618-.309-.841a.995.995 0 0 0-.744-.348H17.632a.995.995 0 0 0-.745.348 1.273 1.273 0 0 0-.308.841v11.897c0 .316.11.618.308.841a.995.995 0 0 0 .745.349h10.526c.28 0 .547-.126.744-.349.198-.223.309-.525.309-.84ZM25 20.186h-4.21v4.759H25v-4.759Z" stroke="#000" stroke-width="2" stroke-linecap="round" stroke-linejoin="round"/></svg>
